assets/icons/phone-icon.svg

<svg width="32" height="32" viewBox="0 0 32 32" fill="none" xmlns="http://www.w3.org/2000/svg">
<path d="M8.38981 4.01772C4.11887 7.20438 3.58981 14.1964 7.38874 21.2444C11.1013 28.1308 16.9845 31.7895 23.0677 29.9111C24.649 29.4231 26.1663 28.0716 26.1663 26.5495C26.1669 23.9036 23.1391 18.6348 20.8714 18.2257C20.2351 18.1116 19.4661 18.3409 18.3221 18.8348C18.2037 18.886 18.0821 18.9399 17.9573 18.9964L17.6725 19.1276C17.3941 19.2572 17.1599 19.3708 16.7621 19.5676L16.5909 19.6519L16.5829 19.6444C16.5109 19.5746 16.4417 19.502 16.3754 19.4268C16.0474 19.0567 15.6607 18.5116 15.2709 17.8705L15.1578 17.6817C14.6341 16.7964 14.169 15.8439 13.8666 15.0503L13.8383 14.974L14.561 14.6647C14.7103 14.6007 14.8527 14.5372 15.0021 14.4705L15.4234 14.2801L15.7477 14.1292C16.569 13.7404 17.0565 13.4588 17.3306 13.1607C18.897 11.4556 15.7919 3.22199 13.2442 2.74732C11.7285 2.46465 9.89701 2.95692 8.53861 3.90998L8.38928 4.01772H8.38981ZM12.8533 4.84438C13.1786 4.90518 14.1269 6.36972 14.8389 8.25772C15.1946 9.20012 15.4639 10.1511 15.5898 10.9015L15.6111 11.0316C15.6453 11.2433 15.6638 11.4572 15.6666 11.6716L15.6634 11.7697L15.529 11.8471L15.4554 11.8881C15.2197 12.0161 14.9077 12.1692 14.5317 12.342L13.913 12.6199C13.6943 12.7159 13.4735 12.8119 13.2031 12.9265L12.2218 13.3441L12.0757 13.4124L12.0266 13.4385L11.9989 13.4108C11.9402 13.3708 11.8895 13.5137 11.4991 14.6225C12.1471 17.398 14.8847 21.902 16.5658 21.9047L16.7733 21.8817C16.8175 21.8764 16.8426 21.8716 16.8655 21.8652L17.0074 21.8145L17.1295 21.7617L17.5695 21.5484L18.3178 21.182C18.433 21.1271 18.5418 21.0753 18.6634 21.0193L19.0047 20.8647L19.1679 20.7932C19.4934 20.6485 19.8267 20.5223 20.1663 20.4151L20.2853 20.382C20.4293 20.3436 20.5146 20.3292 20.4933 20.3255C21.5599 20.5175 24.0335 24.8215 24.033 26.5495C24.033 26.9121 23.2287 27.6289 22.4383 27.8732C17.4997 29.398 12.5482 26.3191 9.26661 20.2316C5.92048 14.0252 6.36261 8.19212 9.66554 5.72759C10.585 5.04119 11.9061 4.66785 12.8533 4.84438Z" fill="#444444"/>
</svg>

<svg xmlns="http://www.w3.org/2000/svg" width="32" height="32" fill="none" viewBox="0 0 32 32" data-c="1"><path fill="#444" d="M8.39 4.018c-4.271 3.186-4.8 10.178-1.001 17.226 3.712 6.887 9.596 10.546 15.679 8.667 1.581-.488 3.098-1.84 3.098-3.362 0-2.645-3.027-7.914-5.295-8.323-.636-.114-1.405.115-2.549.609l-.365.161-.285.132c-.278.13-.512.243-.91.44l-.171.084-.008-.008a4 4 0 0 1-.208-.217c-.328-.37-.714-.915-1.104-1.556l-.113-.19a18 18 0 0 1-1.291-2.63l-.029-.077.723-.31c.15-.063.292-.127.441-.194l.421-.19.325-.15c.821-.39 1.309-.671 1.583-.97 1.566-1.704-1.54-9.938-4.087-10.413-1.515-.282-3.347.21-4.705 1.163zm4.463.826c.326.061 1.274 1.526 1.986 3.414.356.942.625 1.893.75 2.644l.022.13q.051.317.056.64l-.004.098-.134.077-.074.041c-.235.128-.547.281-.923.454l-.619.278c-.219.096-.44.192-.71.307l-.981.417-.146.068-.05.026-.027-.027c-.059-.04-.11.103-.5 1.212.648 2.775 3.386 7.279 5.067 7.282l.207-.023a1 1 0 0 0 .093-.017l.141-.05.122-.053.44-.214.749-.366c.115-.055.224-.107.345-.163l.342-.154.163-.072a10 10 0 0 1 .998-.378l.12-.033c.143-.038.229-.053.207-.056 1.067.191 3.54 4.496 3.54 6.223 0 .363-.804 1.08-1.595 1.324-4.938 1.525-9.89-1.554-13.171-7.641-3.347-6.207-2.904-12.04.399-14.504.919-.687 2.24-1.06 3.187-.884"/></svg>
